X:1
T:The Fire of Frendraught
M:3/4
L:1/8
K:C
 G|A-B d2 B3/2 A/2|G-E G2 B3/2- G/2| AB/2-d/2 e2 d3/2- B/2| A4 z G|\
 AB d2 B3/2- A/2| GE G2 A3/2- G/2| E2 D2 EG| A4 z2|
